icons/file_type_eslint2.svg

<svg xmlns="http://www.w3.org/2000/svg" viewBox="0 0 32 32"><path d="M13.027 30 2.39 20.422l2.979-14L18.973 2l10.637 9.578-2.979 14L13.027 30ZM7.883 18.642l6.342 5.7 8.112-2.642 1.781-8.344-6.343-5.712L9.663 10.3l-1.78 8.342Z" style="fill:#4b32c3"/><path d="M21.72 25.915H10.28L4.554 16l5.726-9.915h11.44L27.446 16l-5.726 9.915Zm-9.426-3.491h7.413L23.419 16l-3.712-6.424h-7.414L8.593 16l3.7 6.424Z" style="fill:#8080f2"/></svg>

<svg xmlns="http://www.w3.org/2000/svg" viewBox="0 0 32 32"><title>file_type_eslint2</title><path d="M13.027,30,2.39,20.422l2.979-14L18.973,2,29.61,11.578l-2.979,14L13.027,30ZM7.883,18.642l6.342,5.7L22.337,21.7l1.781-8.344L17.775,7.644,9.663,10.3,7.883,18.642Z" style="fill:#4b32c3"/><path d="M21.72,25.915H10.28L4.554,16,10.28,6.085H21.72L27.446,16,21.72,25.915Zm-9.426-3.491h7.413L23.419,16,19.707,9.576H12.293L8.593,16l3.7,6.424Z" style="fill:#8080f2"/></svg>
